packages/core/src/svgs/trove.svg

<svg width="24" height="24" viewBox="0 0 24 24" fill="none" xmlns="http://www.w3.org/2000/svg">
<g clip-path="url(#clip0_31_20030)">
<path d="M0 0H24V24H0V0Z" fill="url(#paint0_linear_31_20030)"/>
<path d="M14.2072 16.4142C14.39 16.764 14.6653 17.0568 15.0031 17.2609C15.3409 17.4649 15.7282 17.5723 16.1229 17.5714H17.7772C18.5872 17.5714 19.1057 16.7142 18.7329 15.9985L12.9557 4.8685C12.8641 4.6944 12.7266 4.54863 12.5582 4.44694C12.3898 4.34525 12.1968 4.2915 12 4.2915C11.8033 4.2915 11.6103 4.34525 11.4418 4.44694C11.2734 4.54863 11.1359 4.6944 11.0443 4.8685L5.26716 15.9985C5.18164 16.1626 5.1399 16.346 5.14596 16.5309C5.15203 16.7159 5.2057 16.8961 5.30179 17.0542C5.39788 17.2124 5.53314 17.3431 5.69449 17.4336C5.85584 17.5242 6.03783 17.5717 6.22287 17.5714H7.69287C8.46859 17.5714 9.18858 17.1514 9.57001 16.4785L11.2029 13.5899C10.9457 13.4442 10.7314 13.2299 10.5857 12.9685C10.4093 12.711 10.3066 12.4102 10.2886 12.0986C10.2706 11.787 10.338 11.4764 10.4835 11.2003C10.629 10.9242 10.8472 10.6931 11.1145 10.5319C11.3817 10.3706 11.6879 10.2854 12 10.2854C12.3121 10.2854 12.6183 10.3706 12.8856 10.5319C13.1528 10.6931 13.371 10.9242 13.5165 11.2003C13.6621 11.4764 13.7295 11.787 13.7114 12.0986C13.6934 12.4102 13.5907 12.711 13.4143 12.9685C13.2603 13.244 13.0295 13.4689 12.75 13.6156L14.2072 16.4142Z" fill="url(#paint1_linear_31_20030)"/>
</g>
<defs>
<linearGradient id="paint0_linear_31_20030" x1="4.46571" y1="4.16143" x2="29.2071" y2="32.58" gradientUnits="userSpaceOnUse">
<stop stop-color="#1A1E21"/>
<stop offset="1" stop-color="#06060A"/>
</linearGradient>
<linearGradient id="paint1_linear_31_20030" x1="12" y1="4.28565" x2="12" y2="17.5714" gradientUnits="userSpaceOnUse">
<stop stop-color="#6036EF"/>
<stop offset="1" stop-color="#746E89"/>
</linearGradient>
<clipPath id="clip0_31_20030">
<rect width="24" height="24" fill="white"/>
</clipPath>
</defs>
</svg>

<svg xmlns="http://www.w3.org/2000/svg" width="24" height="24" fill="none" viewBox="0 0 24 24"><g clip-path="url(#a)"><path fill="url(#b)" d="M0 0h24v24H0z"/><path fill="url(#c)" d="M14.207 16.414a2.16 2.16 0 0 0 1.916 1.157h1.654c.81 0 1.329-.857.956-1.573l-5.777-11.13a1.08 1.08 0 0 0-1.912 0l-5.777 11.13a1.076 1.076 0 0 0 .956 1.573h1.47c.776 0 1.496-.42 1.877-1.093l1.633-2.888a1.6 1.6 0 0 1-.617-.621 1.714 1.714 0 1 1 2.828 0c-.154.275-.384.5-.664.647z"/></g><defs><linearGradient id="b" x1="4.466" x2="29.207" y1="4.161" y2="32.58" gradientUnits="userSpaceOnUse"><stop stop-color="#1A1E21"/><stop offset="1" stop-color="#06060A"/></linearGradient><linearGradient id="c" x1="12" x2="12" y1="4.286" y2="17.571" gradientUnits="userSpaceOnUse"><stop stop-color="#6036EF"/><stop offset="1" stop-color="#746E89"/></linearGradient><clipPath id="a"><path fill="#fff" d="M0 0h24v24H0z"/></clipPath></defs></svg>
